coreui/free/cil-history.svg

<svg viewBox="0 0 512 512" xmlns="http://www.w3.org/2000/svg"><g><path d="M256.25 16v0C193.29 16.03 132.86 40.8 88 84.97V15.99H56v128h128v-32h-77.713l-.001 0c39.19-40.86 93.34-63.97 149.963-64 114.55 0 207.75 93.2 207.75 207.75s-93.2 207.75-207.75 207.75 -207.75-93.2-207.75-207.75h-32l-.001-.001c-.01 132.41 107.33 239.75 239.74 239.75 63.58 0 124.56-25.26 169.52-70.23v-.001c93.62-93.63 93.62-245.43 0-339.06 -44.97-44.97-105.95-70.23-169.53-70.23Z"/><path d="M240 111.95l-.54 176.04 128.53 0 0-32 -96.44 0 .43-143.96 -32-.1Z"/></g></svg>

<svg xmlns="http://www.w3.org/2000/svg" viewBox="0 0 512 512">
  <path fill="var(--ci-primary-color, currentColor)" d="M256.25,16A240,240,0,0,0,88,84.977V16H56V144H184V112H106.287A208,208,0,0,1,256.25,48C370.8,48,464,141.2,464,255.75S370.8,463.5,256.25,463.5,48.5,370.3,48.5,255.75h-32A239.75,239.75,0,0,0,425.779,425.279,239.75,239.75,0,0,0,256.25,16Z" class="ci-primary"/>
  <polygon fill="var(--ci-primary-color, currentColor)" points="240 111.951 239.465 288 368 288 368 256 271.563 256 272 112.049 240 111.951" class="ci-primary"/>
</svg>
